X: 22
T: Seonaidh's
R: strathspey
Z: 2019 John Chambers <jc:trillian.mit.edu>
S: smallpipes set from Stephen Thomforde
M: C
L: 1/8
K: D
|:\
"D"d>e f>g f<ef2 | "(Bm)"d>e f>g f<d "A(Em)"e2 |\
"Em"B<e g>f e<d c>B | "A"A>c e>g [1 "D"f2 f>e :|[2 "D"f<d d |]
f |:\
"D"a2 a>g f<e f2 | "(Bm)"f>g a>g f<d "A(Em)"e2 |\
"Em"B<e g>f e<d c>B | "A"A>c e>g [1 "D"f2 f>g :|[2 "D"f<d d2 |]

%%sep 1 1 500

